X: 33653
T: Rambling Cat, The
R: reel
M: 4/4
K: Gmajor
|:D3E G3B|BAGB AGEG|D3E G3e|dBAc BAGE|
D3E G3B|BAGB AGEG|B2AG EGGe|dBAc BGG2:|
|:eAAG BGG2|dGeG dG (3Bcd|eAAG BGGE|DEGA BA (3Bcd|
eAAG BGG2|dGeG dBGE|D3E G3e|dBAc BGG2:|

